public/svgs/light/cloud-showers.svg

<svg xmlns="http://www.w3.org/2000/svg" viewBox="0 0 512 512"><!-- Font Awesome Pro 6.0.0-alpha2 by @fontawesome - https://fontawesome.com License - https://fontawesome.com/license (Commercial License) --><path d="M112 368C103.25 368 96 375.25 96 384V464C96 472.75 103.25 480 112 480S128 472.75 128 464V384C128 375.25 120.75 368 112 368ZM304 368C295.25 368 288 375.25 288 384V464C288 472.75 295.25 480 304 480S320 472.75 320 464V384C320 375.25 312.75 368 304 368ZM208 400C199.25 400 192 407.25 192 416V496C192 504.75 199.25 512 208 512S224 504.75 224 496V416C224 407.25 216.75 400 208 400ZM400 400C391.25 400 384 407.25 384 416V496C384 504.75 391.25 512 400 512S416 504.75 416 496V416C416 407.25 408.75 400 400 400ZM414.688 112.219C407.156 66.75 367.562 32 320 32C301.031 32 282.906 37.469 267.406 47.688C246.688 18.219 212.594 0 176 0C114.25 0 64 50.25 64 112C64 114.719 64.094 117.438 64.312 120.188C25.844 136.062 0 173.656 0 216C0 273.344 46.656 320 104 320H408C465.344 320 512 273.344 512 216C512 160.906 468.938 115.688 414.688 112.219ZM408 288H104C64.312 288 32 255.688 32 216C32 183.406 54.188 154.875 85.969 146.625C94.187 144.469 99.312 136.281 97.625 127.969C96.562 122.781 96 117.469 96 112C96 67.875 131.875 32 176 32C206.969 32 235.406 50.312 248.469 78.625C250.656 83.406 255.062 86.812 260.25 87.687C265.438 88.781 270.719 86.937 274.406 83.156C286.562 70.812 302.75 64 320 64C355.281 64 384 92.719 384 128C384 136.844 391.156 144 400 144H408C447.688 144 480 176.312 480 216S447.688 288 408 288Z"/></svg>

<svg xmlns="http://www.w3.org/2000/svg" viewBox="0 0 512 512"><!--! Font Awesome Pro 6.5.1 by @fontawesome - https://fontawesome.com License - https://fontawesome.com/license (Commercial License) Copyright 2023 Fonticons, Inc. --><path d="M96 112c0-44.2 35.8-80 80-80c32.2 0 59.9 19 72.6 46.4c2.2 4.8 6.6 8.1 11.8 9s10.4-.8 14.1-4.5c11.6-11.7 27.7-19 45.5-19c35.3 0 64 28.7 64 64l0 .3c0 4.5 1.9 8.8 5.2 11.8s7.8 4.5 12.2 4.1c2.2-.2 4.3-.3 6.6-.3c39.8 0 72 32.2 72 72s-32.2 72-72 72H104c-39.8 0-72-32.2-72-72c0-33.5 22.9-61.7 53.9-69.7c8.2-2.1 13.3-10.3 11.7-18.6c-1-5.1-1.5-10.3-1.5-15.7zM512 216c0-55.2-43-100.3-97.3-103.8C407.2 66.7 367.6 32 320 32c-19.3 0-37.3 5.7-52.4 15.5C247.3 18.8 213.9 0 176 0C114.1 0 64 50.1 64 112c0 2.6 .1 5.3 .3 7.9C26.6 135.5 0 172.6 0 216c0 57.4 46.6 104 104 104H408c57.4 0 104-46.6 104-104zM128 384c0-8.8-7.2-16-16-16s-16 7.2-16 16v80c0 8.8 7.2 16 16 16s16-7.2 16-16V384zm192 0c0-8.8-7.2-16-16-16s-16 7.2-16 16v80c0 8.8 7.2 16 16 16s16-7.2 16-16V384zm-96 32c0-8.8-7.2-16-16-16s-16 7.2-16 16v80c0 8.8 7.2 16 16 16s16-7.2 16-16V416zm192 0c0-8.8-7.2-16-16-16s-16 7.2-16 16v80c0 8.8 7.2 16 16 16s16-7.2 16-16V416z"/></svg>
